categories/32/preferences-desktop-locale.svg

<?xml version="1.0" encoding="UTF-8" standalone="no"?>
<svg
   xmlns:dc="http://purl.org/dc/elements/1.1/"
   xmlns:cc="http://creativecommons.org/ns#"
   xmlns:rdf="http://www.w3.org/1999/02/22-rdf-syntax-ns#"
   xmlns:svg="http://www.w3.org/2000/svg"
   xmlns="http://www.w3.org/2000/svg"
   xmlns:xlink="http://www.w3.org/1999/xlink"
   xmlns:sodipodi="http://sodipodi.sourceforge.net/DTD/sodipodi-0.dtd"
   xmlns:inkscape="http://www.inkscape.org/namespaces/inkscape"
   version="1.1"
   width="32"
   height="32"
   id="svg4715"
   inkscape:version="0.91 r13725"
   sodipodi:docname="preferences-desktop-locale.svg">
  <sodipodi:namedview
     pagecolor="#ffffff"
     bordercolor="#666666"
     borderopacity="1"
     objecttolerance="10"
     gridtolerance="10"
     guidetolerance="10"
     inkscape:pageopacity="0"
     inkscape:pageshadow="2"
     inkscape:window-width="640"
     inkscape:window-height="480"
     id="namedview254" />
  <defs
     id="defs4717">
    <linearGradient
       id="linearGradient2867-449-88-871-390-598-476-591-434-148-57-177-641-289-620-227-114-444-680-744-4-8-69-5-4-8-426-2-9-1-4-965">
      <stop
         id="stop4036"
         style="stop-color:#f4f4f4;stop-opacity:1"
         offset="0" />
      <stop
         id="stop4040"
         style="stop-color:#d0d0d0;stop-opacity:1"
         offset="1" />
    </linearGradient>
    <radialGradient
       cx="20.930695"
       cy="8.4497671"
       r="19.99999"
       fx="20.930695"
       fy="8.4497671"
       id="radialGradient3035"
       xlink:href="#linearGradient2867-449-88-871-390-598-476-591-434-148-57-177-641-289-620-227-114-444-680-744-4-8-69-5-4-8-426-2-9-1-4-965"
       gradientUnits="userSpaceOnUse"
       gradientTransform="matrix(0,1.0786108,-1.1125155,-1.9872127e-8,21.400545,-36.816073)" />
    <linearGradient
       id="linearGradient3702-501-757-1">
      <stop
         offset="0"
         style="stop-color:#181818;stop-opacity:0"
         id="stop2895-2" />
      <stop
         offset="0.5"
         style="stop-color:#181818;stop-opacity:1"
         id="stop2897-89" />
      <stop
         offset="1"
         style="stop-color:#181818;stop-opacity:0"
         id="stop2899-36" />
    </linearGradient>
    <linearGradient
       gradientUnits="userSpaceOnUse"
       xlink:href="#linearGradient3702-501-757-1"
       id="linearGradient3086-8"
       y2="39.999443"
       x2="25.058096"
       y1="47.027729"
       x1="25.058096" />
    <linearGradient
       id="linearGradient3688-464-309-7-6">
      <stop
         offset="0"
         style="stop-color:#181818;stop-opacity:1"
         id="stop2889-75" />
      <stop
         offset="1"
         style="stop-color:#181818;stop-opacity:0"
         id="stop2891-4-9" />
    </linearGradient>
    <radialGradient
       gradientTransform="matrix(2.003784,0,0,1.4,-20.01187,-104.4)"
       gradientUnits="userSpaceOnUse"
       xlink:href="#linearGradient3688-464-309-7-6"
       id="radialGradient3084-4"
       fy="43.5"
       fx="4.9929786"
       r="2.5"
       cy="43.5"
       cx="4.9929786" />
    <linearGradient
       id="linearGradient3688-166-749-9">
      <stop
         offset="0"
         style="stop-color:#181818;stop-opacity:1"
         id="stop2883-2" />
      <stop
         offset="1"
         style="stop-color:#181818;stop-opacity:0"
         id="stop2885-2" />
    </linearGradient>
    <radialGradient
       gradientTransform="matrix(2.003784,0,0,1.4,27.98813,-17.4)"
       gradientUnits="userSpaceOnUse"
       xlink:href="#linearGradient3688-166-749-9"
       id="radialGradient3082-6"
       fy="43.5"
       fx="4.9929786"
       r="2.5"
       cy="43.5"
       cx="4.9929786" />
    <linearGradient
       id="linearGradient3924-64">
      <stop
         offset="0"
         style="stop-color:#ffffff;stop-opacity:1"
         id="stop3926-3-6" />
      <stop
         offset="0.00170911"
         style="stop-color:#ffffff;stop-opacity:0.23529412"
         id="stop3928-0" />
      <stop
         offset="1"
         style="stop-color:#ffffff;stop-opacity:0.15686275"
         id="stop3930-3-59" />
      <stop
         offset="1"
         style="stop-color:#ffffff;stop-opacity:0.39215687"
         id="stop3932-0" />
    </linearGradient>
    <linearGradient
       xlink:href="#linearGradient3924-64"
       id="linearGradient3357"
       gradientUnits="userSpaceOnUse"
       gradientTransform="matrix(0.45945947,0,0,0.45945947,0.9742189,8.9717503)"
       x1="23.99999"
       y1="6.5164104"
       x2="23.99999"
       y2="41.483578" />
    <linearGradient
       xlink:href="#linearGradient3924-64-8"
       id="linearGradient3357-4"
       gradientUnits="userSpaceOnUse"
       gradientTransform="matrix(0.45945947,0,0,0.45945947,8.974219,0.9717506)"
       x1="23.99999"
       y1="6.191463"
       x2="23.99999"
       y2="41.483578" />
    <linearGradient
       id="linearGradient3924-64-8">
      <stop
         offset="0"
         style="stop-color:#ffffff;stop-opacity:1"
         id="stop3926-3-6-3" />
      <stop
         offset="0.02196701"
         style="stop-color:#ffffff;stop-opacity:0.23529412"
         id="stop3928-0-2" />
      <stop
         offset="0.99660015"
         style="stop-color:#ffffff;stop-opacity:0.15686275"
         id="stop3930-3-59-7" />
      <stop
         offset="1"
         style="stop-color:#ffffff;stop-opacity:0.39215687"
         id="stop3932-0-3" />
    </linearGradient>
    <linearGradient
       xlink:href="#linearGradient4549-5"
       id="linearGradient4287-3"
       gradientUnits="userSpaceOnUse"
       gradientTransform="matrix(1,0,0,0.75972208,-40.880743,7.1605714)"
       x1="30.643436"
       y1="3.915791"
       x2="30.643436"
       y2="30.093096" />
    <linearGradient
       id="linearGradient4549-5">
      <stop
         id="stop4551-9"
         style="stop-color:#000000;stop-opacity:0.27205881"
         offset="0" />
      <stop
         id="stop4553-0"
         style="stop-color:#000000;stop-opacity:0.36764705"
         offset="1" />
    </linearGradient>
    <radialGradient
       xlink:href="#linearGradient2867-449-88-871-390-598-476-591-434-148-57-177-8-3-5"
       id="radialGradient4466-5"
       gradientUnits="userSpaceOnUse"
       gradientTransform="matrix(-1.7092624e-8,2.9140716,-4.4909653,2.4462384e-8,64.711197,-23.882494)"
       cx="6.573379"
       cy="9.9571075"
       fx="6.043149"
       fy="9.9571075"
       r="12.671875" />
    <linearGradient
       id="linearGradient2867-449-88-871-390-598-476-591-434-148-57-177-8-3-5">
      <stop
         offset="0"
         style="stop-color:#90dbec;stop-opacity:1"
         id="stop3750-1-0-5" />
      <stop
         offset="0.26238"
         style="stop-color:#55c1ec;stop-opacity:1"
         id="stop3752-3-7-5" />
      <stop
         offset="0.704952"
         style="stop-color:#3689e6;stop-opacity:1"
         id="stop3754-1-8-0" />
      <stop
         offset="1"
         style="stop-color:#2b63a0;stop-opacity:1"
         id="stop3756-1-6-8" />
    </linearGradient>
  </defs>
  <metadata
     id="metadata4720">
    <rdf:RDF>
      <cc:Work
         rdf:about="">
        <dc:format>image/svg+xml</dc:format>
        <dc:type
           rdf:resource="http://purl.org/dc/dcmitype/StillImage" />
        <dc:title />
      </cc:Work>
    </rdf:RDF>
  </metadata>
  <g
     transform="matrix(0.55,0,0,0.3333336,-1.2000011,15.33333)"
     id="g2036-4"
     style="display:inline;opacity:0.75">
    <g
       transform="matrix(1.052632,0,0,1.285713,-1.263158,-13.42854)"
       id="g3712-8"
       style="opacity:0.40000000000000002">
      <rect
         width="5"
         height="7"
         x="38"
         y="40"
         id="rect2801-6"
         style="fill:url(#radialGradient3082-6);fill-opacity:1;stroke:none" />
      <rect
         width="5"
         height="7"
         x="-10"
         y="-47"
         transform="scale(-1,-1)"
         id="rect3696-20"
         style="fill:url(#radialGradient3084-4);fill-opacity:1;stroke:none" />
      <rect
         width="28"
         height="7.0000005"
         x="10"
         y="40"
         id="rect3700-5"
         style="fill:url(#linearGradient3086-8);fill-opacity:1;stroke:none" />
    </g>
  </g>
  <rect
     width="18"
     height="18"
     rx="0.54069757"
     ry="0.54069757"
     x="3"
     y="-29"
     transform="scale(1,-1)"
     id="rect5505"
     style="color:#000000;fill:url(#radialGradient3035);fill-opacity:1;fill-rule:nonzero;stroke:none;stroke-width:1;marker:none;visibility:visible;display:inline;overflow:visible;enable-background:accumulate" />
  <path
     style="font-size:13.9508791px;font-style:normal;font-variant:normal;font-weight:600;font-stretch:normal;text-align:start;line-height:125%;letter-spacing:0px;word-spacing:0px;writing-mode:lr-tb;text-anchor:start;fill:#666666;fill-opacity:1;stroke:none;font-family:Open Sans;-inkscape-font-specification:Open Sans Semi-Bold"
     d="m 10.09375,14.25 c -0.0045,0.05451 -0.0085,0.197361 -0.03125,0.40625 C 10.02162,14.987775 9.99145,15.268404 9.96875,15.5 L 9.9375,15.9375 9.90625,16.25 c -0.513171,0.03634 -1.066423,0.06251 -1.625,0.0625 -0.3723891,9e-6 -0.7435326,-0.03524 -1.125,-0.0625 L 7.25,17.21875 c 0.1453199,0.0091 0.3485177,0.03126 0.59375,0.03125 0.631238,8e-6 1.273927,-0.03925 1.96875,-0.09375 C 9.74438,17.96915 9.73237,18.690348 9.71875,19.3125 9.260075,19.562277 8.892934,19.80473 8.625,20 7.2217362,21.058128 6.4999991,22.218817 6.5,23.53125 6.4999991,24.498548 6.9234818,25 7.75,25 c 0.685734,0 1.410934,-0.294252 2.1875,-0.84375 0.0772,0.48592 0.133539,0.810344 0.15625,0.9375 l 1,-0.375 C 10.975671,24.273703 10.915866,23.824051 10.875,23.40625 11.470594,22.845282 11.995909,22.211882 12.46875,21.5 L 11.5,21.5 c -0.05703,0 -0.101878,-0.02217 -0.15625,-0.03125 -0.189143,0.262264 -0.381039,0.512942 -0.59375,0.75 C 10.73189,21.949125 10.7291,21.477252 10.71875,21.125 10.581651,20.953893 10.5,20.737303 10.5,20.5 l 0,-6.21875 L 10.09375,14.25 z M 9.6875,20.28125 c 0.01362,1.153494 0.05688,2.085895 0.125,2.8125 -0.667575,0.613077 -1.289175,0.937501 -1.875,0.9375 -0.2679389,1e-6 -0.4062519,-0.169023 -0.40625,-0.46875 C 7.5312481,23.49892 7.513622,23.451665 7.5,23.40625 7.513622,23.37446 7.531248,23.31358 7.53125,23.25 7.585744,22.546101 7.9608894,21.829444 8.6875,21.09375 c 0.340594,-0.358758 0.682105,-0.621761 1,-0.8125 z M 16.375,21.5 c 0.01162,0.102858 0.03125,0.203244 0.03125,0.3125 -1.1e-5,0.89918 -0.44058,1.611296 -1.3125,2.15625 -0.685745,0.431425 -1.601059,0.721135 -2.75,0.84375 L 12.9375,25.75 c 1.312428,-0.186194 2.339884,-0.56642 3.09375,-1.125 0.967286,-0.717524 1.468738,-1.66809 1.46875,-2.8125 -1e-6,-0.108478 -0.02233,-0.208852 -0.03125,-0.3125 l -1.09375,0 z"
     id="text4533-9" />
  <path
     style="opacity:0.05;color:#000000;fill:#000000;fill-opacity:1;fill-rule:nonzero;stroke:none;stroke-width:0.99999994000000003;marker:none;visibility:visible;display:inline;overflow:visible;enable-background:accumulate"
     id="path4457"
     d="M 11.0625,2 C 9.9392088,2 9,2.939209 9,4.0625 l 0,17.875 C 9,23.060791 9.939209,24 11.0625,24 l 17.875,0 C 30.060791,24 31,23.060791 31,21.9375 L 31,4.0625 C 31,2.939209 30.060791,2 28.9375,2 l -17.875,0 z" />
  <rect
     width="20"
     height="20"
     rx="1.0526315"
     ry="1.0526315"
     x="10"
     y="3"
     id="rect5505-21-8-5-7"
     style="color:#000000;fill:#000000;fill-opacity:1;fill-rule:nonzero;stroke:none;stroke-width:0.99999994000000003;marker:none;visibility:visible;display:inline;overflow:visible;enable-background:accumulate;opacity:0.15" />
  <rect
     width="17"
     height="17"
     x="3.5012493"
     y="11.498774"
     id="rect6741-9"
     style="opacity:1;fill:none;stroke:url(#linearGradient3357);stroke-width:0.99999988;stroke-linecap:round;stroke-linejoin:round;stroke-miterlimit:4;stroke-opacity:1;stroke-dasharray:none;stroke-dashoffset:0" />
  <rect
     width="19.000002"
     height="19.000002"
     rx="1"
     ry="1"
     x="2.4999981"
     y="10.500026"
     id="rect5505-21-8-1"
     style="opacity:1;color:#000000;fill:none;stroke:url(#linearGradient4287-3);stroke-width:1;stroke-linecap:round;stroke-linejoin:round;stroke-miterlimit:4;stroke-opacity:1;stroke-dasharray:none;stroke-dashoffset:0;marker:none;visibility:visible;display:inline;overflow:visible;enable-background:accumulate" />
  <rect
     width="19.000002"
     height="19.000002"
     rx="1"
     ry="1"
     x="10.499998"
     y="2.5000257"
     id="rect5505-21-8-5"
     style="color:#000000;fill:url(#radialGradient4466-5);fill-opacity:1;fill-rule:nonzero;stroke:none;stroke-width:1;marker:none;visibility:visible;display:inline;overflow:visible;enable-background:accumulate" />
  <rect
     width="17"
     height="17"
     x="11.501249"
     y="3.4987736"
     id="rect6741-9-9"
     style="opacity:0.5;fill:none;stroke:url(#linearGradient3357-4);stroke-width:0.99999988;stroke-linecap:round;stroke-linejoin:round;stroke-miterlimit:4;stroke-opacity:1;stroke-dasharray:none;stroke-dashoffset:0" />
  <rect
     width="19.000002"
     height="19.000002"
     rx="1"
     ry="1"
     x="10.499998"
     y="2.5000257"
     id="rect5505-21-8-1-2"
     style="opacity:0.5;color:#000000;fill:#000000;stroke:#00537d;stroke-width:1;stroke-linecap:round;stroke-linejoin:round;stroke-miterlimit:4;stroke-opacity:1;stroke-dasharray:none;stroke-dashoffset:0;marker:none;visibility:visible;display:inline;overflow:visible;enable-background:accumulate;clip-rule:nonzero;isolation:auto;mix-blend-mode:normal;color-interpolation:sRGB;color-interpolation-filters:linearRGB;solid-color:#000000;solid-opacity:1;fill-opacity:0;fill-rule:nonzero;filter-blend-mode:normal;filter-gaussianBlur-deviation:0;color-rendering:auto;image-rendering:auto;shape-rendering:auto;text-rendering:auto" />
  <path
     style="font-size:13.95087909999999987px;font-style:normal;font-variant:normal;font-weight:600;font-stretch:normal;text-align:start;line-height:125%;letter-spacing:0px;word-spacing:0px;writing-mode:lr-tb;text-anchor:start;opacity:0.05;color:#000000;fill:#10283f;fill-opacity:0.63137255000000003;fill-rule:nonzero;stroke:none;stroke-width:0.99999994000000003;marker:none;visibility:visible;display:inline;overflow:visible;enable-background:accumulate;font-family:Open Sans;-inkscape-font-specification:Open Sans Semi-Bold"
     id="path4698"
     d="M 19.03125,7 A 1.0015805,1.0015805 0 0 0 18.1875,7.65625 l -3.75,10 A 1.0015805,1.0015805 0 0 0 15.375,19 l 1.71875,0 a 1.0015805,1.0015805 0 0 0 0.9375,-0.6875 L 18.8125,16 l 2.34375,0 0.78125,2.3125 A 1.0015805,1.0015805 0 0 0 22.875,19 l 1.75,0 a 1.0015805,1.0015805 0 0 0 0.9375,-1.34375 l -3.75,-10 A 1.0015805,1.0015805 0 0 0 20.875,7 l -1.75,0 A 1.0015805,1.0015805 0 0 0 19.03125,7 z M 20,12.65625 20.09375,13 19.875,13 20,12.65625 z" />
  <path
     style="font-size:13.95087909999999987px;font-style:normal;font-variant:normal;font-weight:600;font-stretch:normal;text-align:start;line-height:125%;letter-spacing:0px;word-spacing:0px;writing-mode:lr-tb;text-anchor:start;fill:#10283f;fill-opacity:0.63137255000000003;stroke:none;font-family:Open Sans;-inkscape-font-specification:Open Sans Semi-Bold;opacity:0.29999999999999999;color:#000000;fill-rule:nonzero;stroke-width:0.99999994000000003;marker:none;visibility:visible;display:inline;overflow:visible;enable-background:accumulate"
     d="m 22.881455,18 -1.047697,-3 -3.696762,0 -1.032077,3 c -0.572204,0 -1.144408,0 -1.716612,0 1.242046,-3.333316 2.484092,-6.666631 3.726138,-9.999947 0.590369,0 1.180738,0 1.771107,0 1.242046,3.333316 2.484093,6.666631 3.726139,9.999947 -0.576746,0 -1.153491,0 -1.730236,0 z M 21.490581,14 20,9.6517445 18.479234,14 z"
     id="text4533-5" />
  <path
     style="font-size:13.9508791px;font-style:normal;font-variant:normal;font-weight:600;font-stretch:normal;text-align:start;line-height:125%;letter-spacing:0px;word-spacing:0px;writing-mode:lr-tb;text-anchor:start;fill:#ffffff;fill-opacity:1;stroke:none;font-family:Open Sans;-inkscape-font-specification:Open Sans Semi-Bold"
     d="m 22.881455,17 -1.047697,-3 -3.696762,0 -1.032077,3 c -0.572204,0 -1.144408,0 -1.716612,0 1.242046,-3.333316 2.484092,-6.666631 3.726138,-9.9999465 0.590369,0 1.180738,0 1.771107,0 C 22.127598,10.333369 23.369645,13.666684 24.611691,17 24.034945,17 23.4582,17 22.881455,17 z M 21.490581,13 20,8.651745 18.479234,13 z"
     id="text4533" />
</svg>

<svg xmlns="http://www.w3.org/2000/svg" xmlns:xlink="http://www.w3.org/1999/xlink" viewBox="0 0 32 32"><defs><linearGradient id="a"><stop offset="0" stop-color="#f4f4f4"/><stop offset="1" stop-color="#d0d0d0"/></linearGradient><radialGradient cx="20.931" cy="8.45" r="20" fx="20.931" fy="8.45" id="l" xlink:href="#a" gradientUnits="userSpaceOnUse" gradientTransform="matrix(0 1.0786 -1.11252 0 21.4 -36.816)"/><linearGradient id="b"><stop offset="0" stop-color="#181818" stop-opacity="0"/><stop offset=".5" stop-color="#181818"/><stop offset="1" stop-color="#181818" stop-opacity="0"/></linearGradient><linearGradient gradientUnits="userSpaceOnUse" xlink:href="#b" id="k" y2="39.999" x2="25.058" y1="47.028" x1="25.058"/><linearGradient id="c"><stop offset="0" stop-color="#181818"/><stop offset="1" stop-color="#181818" stop-opacity="0"/></linearGradient><radialGradient gradientTransform="matrix(2.00378 0 0 1.4 -20.012 -104.4)" gradientUnits="userSpaceOnUse" xlink:href="#c" id="j" fy="43.5" fx="4.993" r="2.5" cy="43.5" cx="4.993"/><linearGradient id="d"><stop offset="0" stop-color="#181818"/><stop offset="1" stop-color="#181818" stop-opacity="0"/></linearGradient><radialGradient gradientTransform="matrix(2.00378 0 0 1.4 27.988 -17.4)" gradientUnits="userSpaceOnUse" xlink:href="#d" id="i" fy="43.5" fx="4.993" r="2.5" cy="43.5" cx="4.993"/><linearGradient id="e"><stop offset="0" stop-color="#fff"/><stop offset=".002" stop-color="#fff" stop-opacity=".235"/><stop offset="1" stop-color="#fff" stop-opacity=".157"/><stop offset="1" stop-color="#fff" stop-opacity=".392"/></linearGradient><linearGradient xlink:href="#e" id="m" gradientUnits="userSpaceOnUse" gradientTransform="translate(.974 8.972) scale(.45946)" x1="24" y1="6.516" x2="24" y2="41.484"/><linearGradient xlink:href="#f" id="p" gradientUnits="userSpaceOnUse" gradientTransform="translate(8.974 .972) scale(.45946)" x1="24" y1="6.191" x2="24" y2="41.484"/><linearGradient id="f"><stop offset="0" stop-color="#fff"/><stop offset=".022" stop-color="#fff" stop-opacity=".235"/><stop offset=".997" stop-color="#fff" stop-opacity=".157"/><stop offset="1" stop-color="#fff" stop-opacity=".392"/></linearGradient><linearGradient xlink:href="#g" id="n" gradientUnits="userSpaceOnUse" gradientTransform="matrix(1 0 0 .75972 -40.88 7.16)" x1="30.643" y1="3.916" x2="30.643" y2="30.093"/><linearGradient id="g"><stop offset="0" stop-opacity=".272"/><stop offset="1" stop-opacity=".368"/></linearGradient><radialGradient xlink:href="#h" id="o" gradientUnits="userSpaceOnUse" gradientTransform="matrix(0 2.91407 -4.49097 0 64.71 -23.882)" cx="6.573" cy="9.957" fx="6.043" fy="9.957" r="12.672"/><linearGradient id="h"><stop offset="0" stop-color="#90dbec"/><stop offset=".262" stop-color="#55c1ec"/><stop offset=".705" stop-color="#3689e6"/><stop offset="1" stop-color="#2b63a0"/></linearGradient></defs><g opacity=".4"><path fill="url(#i)" d="M38 40h5v7h-5z" transform="matrix(.57895 0 0 .42857 -1.895 10.857)"/><path transform="matrix(-.57895 0 0 -.42857 -1.895 10.857)" fill="url(#j)" d="M-10-47h5v7h-5z"/><path fill="url(#k)" d="M10 40h28v7H10z" transform="matrix(.57895 0 0 .42857 -1.895 10.857)"/></g><rect width="18" height="18" rx=".541" ry=".541" x="3" y="-29" transform="scale(1 -1)" color="#000" fill="url(#l)" overflow="visible"/><path style="text-align:start;line-height:125%;-inkscape-font-specification:Open Sans Semi-Bold" d="M10.094 14.25c-.005.055-.01.197-.03.406-.042.332-.073.612-.095.844l-.04.438-.03.312a23.4 23.4 0 0 1-1.628.063c-.37 0-.743-.036-1.125-.063l.094.97c.145.008.35.03.594.03.63 0 1.273-.04 1.967-.094-.066.813-.08 1.534-.09 2.157A9.93 9.93 0 0 0 8.62 20c-1.4 1.058-2.123 2.22-2.123 3.53 0 .97.422 1.47 1.25 1.47.685 0 1.41-.294 2.187-.844.077.486.133.81.156.938l1-.375a8.242 8.242 0 0 1-.22-1.32 10.81 10.81 0 0 0 1.596-1.9h-.97c-.058 0-.103-.026-.157-.03-.19.26-.38.51-.596.75-.02-.27-.02-.747-.03-1.1a.994.994 0 0 1-.22-.624v-6.22l-.407-.03zm-.406 6.03c.013 1.155.056 2.087.124 2.814-.667.613-1.29.937-1.874.937-.268 0-.407-.16-.407-.46a.47.47 0 0 0-.03-.155.428.428 0 0 0 .03-.156c.06-.704.43-1.42 1.16-2.156a4.72 4.72 0 0 1 1-.813zm6.687 1.22c.012.103.03.203.03.313 0 .9-.44 1.61-1.31 2.156-.687.43-1.602.72-2.75.84l.592.93c1.313-.186 2.34-.566 3.094-1.125.97-.718 1.47-1.668 1.47-2.813 0-.108-.02-.208-.03-.31h-1.09z" font-size="13.951" font-weight="600" letter-spacing="0" word-spacing="0" fill="#666" font-family="Open Sans"/><path d="M11.063 2C9.938 2 9 2.94 9 4.063v17.875C9 23.06 9.94 24 11.063 24h17.874C30.06 24 31 23.06 31 21.937V4.063C31 2.94 30.06 2 28.937 2H11.063z" opacity=".05" color="#000" overflow="visible"/><rect width="20" height="20" rx="1.053" ry="1.053" x="10" y="3" color="#000" overflow="visible" opacity=".15"/><path fill="none" stroke="url(#m)" stroke-linecap="round" stroke-linejoin="round" d="M3.5 11.5h17v17h-17z"/><rect width="19" height="19" rx="1" ry="1" x="2.5" y="10.5" color="#000" fill="none" stroke="url(#n)" stroke-linecap="round" stroke-linejoin="round" overflow="visible"/><rect width="19" height="19" rx="1" ry="1" x="10.5" y="2.5" color="#000" fill="url(#o)" overflow="visible"/><path opacity=".5" fill="none" stroke="url(#p)" stroke-linecap="round" stroke-linejoin="round" d="M11.5 3.5h17v17h-17z"/><rect width="19" height="19" rx="1" ry="1" x="10.5" y="2.5" style="isolation:auto;mix-blend-mode:normal;filter-blend-mode:normal;filter-gaussianBlur-deviation:0" opacity=".5" color="#000" stroke="#00537d" stroke-linecap="round" stroke-linejoin="round" overflow="visible" fill="none"/><path style="text-align:start;line-height:125%;-inkscape-font-specification:Open Sans Semi-Bold" d="M19.03 7a1.002 1.002 0 0 0-.843.656l-3.75 10a1.002 1.002 0 0 0 .94 1.344h1.72a1.002 1.002 0 0 0 .935-.688l.78-2.312h2.345l.782 2.313a1.002 1.002 0 0 0 .93.687h1.75a1.002 1.002 0 0 0 .94-1.344l-3.75-10A1.002 1.002 0 0 0 20.87 7h-1.75a1.002 1.002 0 0 0-.092 0zm.97 5.656l.094.344h-.22l.126-.344z" font-size="13.951" font-weight="600" letter-spacing="0" word-spacing="0" opacity=".05" color="#000" fill="#10283f" fill-opacity=".631" overflow="visible" font-family="Open Sans"/><path style="text-align:start;line-height:125%;-inkscape-font-specification:Open Sans Semi-Bold" d="M22.88 18l-1.046-3h-3.697l-1.032 3h-1.717l3.726-10h1.772l3.726 10h-1.73zm-1.39-4L20 9.652 18.48 14z" font-size="13.951" font-weight="600" letter-spacing="0" word-spacing="0" fill="#10283f" fill-opacity=".631" font-family="Open Sans" opacity=".3" color="#000" overflow="visible"/><path style="text-align:start;line-height:125%;-inkscape-font-specification:Open Sans Semi-Bold" d="M22.88 17l-1.046-3h-3.697l-1.032 3h-1.717l3.726-10h1.772l3.726 10h-1.73zm-1.39-4L20 8.652 18.48 13z" font-size="13.951" font-weight="600" letter-spacing="0" word-spacing="0" fill="#fff" font-family="Open Sans"/></svg>
